X:5
T:Eddie Moloney's
M:4/4
L:1/8
R:Reel
S:Cherish The Ladies: At Home
Z:Adrian Scahill
K:D
|:EFGA BEE2|(3GFE BE GEE2|EFGA Bee2|d2AG FDD2:|
|:eged cA (3Bcd|e3f g2ag|eged cABc|d2AG FDD2:|
